packages/gestalt-icons-android/vr-theme/ic_vr_fade_gestalt.svg

<svg xmlns="http://www.w3.org/2000/svg" width="24" height="24"><path d="M2 6h4V2H2zm8 0H6v4H2v4h4v4H2v4h4v-4h4v4h4v-4h4v4h4v-4h-4v-4h4v-4h-4V6h4V2h-4v4h-4V2h-4zm0 4V6h4v4zm0 4H6v-4h4zm4 0v4h-4v-4zm0 0v-4h4v4z"/></svg>

<svg width="24" height="24" viewBox="0 0 24 24" fill="none" xmlns="http://www.w3.org/2000/svg">
<path d="M2 2H6V6H2V2Z" fill="black"/>
<path fill-rule="evenodd" clip-rule="evenodd" d="M10 6H6V10H2V14H6V18H2V22H6V18H10V22H14V18H18V22H22V18H18V14H22V10H18V6H22V2H18V6H14V2H10V6ZM10 10V6H14V10H10ZM10 14H6V10H10V14ZM14 14V18H10V14H14ZM14 14V10H18V14H14Z" fill="black"/>
</svg>
